icons/op-status-24.svg

<svg width="24" height="24" viewBox="0 0 24 24" fill="none" xmlns="http://www.w3.org/2000/svg">
<path d="M12 6C7.59375 6 4 9.59375 4 14V18H20V14C20 9.59375 16.4062 6 12 6ZM11.9375 8C12.5 8 12.9375 8.4375 12.9375 9C12.9375 9.25 12.8438 9.5 12.6562 9.6875C12.4688 9.875 12.2188 10 11.9375 10C11.4062 10 10.9688 9.5625 10.9375 9.03125C10.9375 8.4375 11.375 8 11.9375 8ZM6.03125 15.3125H5.96875C5.65625 15.2812 5.4375 15.1562 5.25 14.9375C5.09375 14.7188 5 14.4688 5.03125 14.2188C5.09375 13.6875 5.53125 13.3125 6.03125 13.3125H6.15625C6.40625 13.3438 6.65625 13.4688 6.8125 13.6875C6.96875 13.9062 7.0625 14.1562 7.03125 14.4375C6.96875 14.9375 6.5625 15.3125 6.03125 15.3125ZM7.875 12.1875C7.65625 12.4688 7.34375 12.625 7.03125 12.625C6.84375 12.625 6.625 12.5625 6.46875 12.4375C6.25 12.3125 6.09375 12.0938 6.0625 11.8125C6 11.5625 6.0625 11.2812 6.21875 11.0625C6.5 10.625 7.15625 10.5 7.59375 10.7812C8.0625 11.125 8.15625 11.7188 7.875 12.1875ZM9.625 10.5938C9.5 10.6562 9.34375 10.7188 9.15625 10.7188C8.8125 10.7188 8.46875 10.5 8.28125 10.1875C8.03125 9.6875 8.1875 9.09375 8.6875 8.84375C9.15625 8.5625 9.8125 8.78125 10.0625 9.25C10.3125 9.71875 10.125 10.3125 9.625 10.5938ZM12 17.5C11.1875 17.5 10.5 16.8125 10.5 16C10.5 15.1875 11.1875 14.5 12 14.5C12.8125 14.5 13.5 15.1875 13.5 16C13.5 16.8125 12.8125 17.5 12 17.5ZM15.0312 10L13.5 14.6875C13.125 14.2812 12.5938 14 12 14C11.9062 14 11.8125 14.0312 11.75 14.0312L14.0938 9.59375C14.3438 9.09375 14.75 8.78125 14.9688 8.875C15.1875 8.96875 15.2188 9.46875 15.0312 10ZM16.0938 12.125C15.9375 11.9062 15.875 11.625 15.9062 11.375C15.9688 11.0938 16.0938 10.875 16.3125 10.7188C16.7812 10.4062 17.4062 10.5312 17.7188 10.9688C17.875 11.1562 17.9375 11.4375 17.875 11.6875C17.8438 11.9375 17.6875 12.1875 17.4688 12.3438C17.3125 12.4688 17.0938 12.5312 16.9062 12.5312C16.5625 12.5312 16.2812 12.375 16.0938 12.125ZM18.4688 15.3438C18.3125 15.4688 18.0938 15.5312 17.9062 15.5312C17.5625 15.5312 17.2812 15.375 17.0938 15.125C16.9375 14.9062 16.875 14.625 16.9062 14.375C16.9688 14.0938 17.0938 13.875 17.3125 13.7188C17.7812 13.4062 18.4062 13.5312 18.7188 13.9688C18.875 14.1562 18.9375 14.4375 18.875 14.6875C18.8438 14.9375 18.6875 15.1875 18.4688 15.3438Z" fill="black"/>
</svg>

<svg xmlns="http://www.w3.org/2000/svg" width="24" height="24" viewBox="0 0 24 24"><path d="M12 6c-4.406 0-8 3.594-8 8v4h16v-4c0-4.406-3.594-8-8-8Zm-.062 2c.562 0 1 .438 1 1 0 .25-.094.5-.282.688a1.017 1.017 0 0 1-.718.312c-.532 0-.969-.438-1-.969 0-.593.437-1.031 1-1.031Zm-5.907 7.312h-.062a1.02 1.02 0 0 1-.719-.374c-.156-.219-.25-.469-.219-.719.063-.531.5-.907 1-.907h.125c.25.032.5.157.656.376.157.218.25.468.219.75a.987.987 0 0 1-1 .874Zm1.844-3.124a1.082 1.082 0 0 1-.844.437.941.941 0 0 1-.562-.187.813.813 0 0 1-.407-.626.928.928 0 0 1 .157-.75c.281-.437.937-.562 1.375-.281.468.344.562.938.281 1.407Zm1.75-1.594a1.04 1.04 0 0 1-.469.125c-.344 0-.687-.219-.875-.531-.25-.5-.093-1.094.407-1.344.468-.282 1.124-.063 1.374.406.25.469.063 1.062-.437 1.344ZM12 17.5c-.812 0-1.5-.688-1.5-1.5s.688-1.5 1.5-1.5 1.5.688 1.5 1.5-.688 1.5-1.5 1.5Zm3.031-7.5L13.5 14.688c-.375-.407-.906-.688-1.5-.688-.094 0-.188.031-.25.031l2.344-4.437c.25-.5.656-.813.875-.719.219.094.25.594.062 1.125Zm1.063 2.125a1.09 1.09 0 0 1-.188-.75c.063-.281.188-.5.406-.656a1.032 1.032 0 0 1 1.407.25.836.836 0 0 1 .156.719.987.987 0 0 1-.406.656.99.99 0 0 1-1.375-.219Zm2.375 3.219a.99.99 0 0 1-1.375-.219 1.09 1.09 0 0 1-.188-.75c.063-.281.188-.5.406-.656a1.032 1.032 0 0 1 1.407.25.836.836 0 0 1 .156.719.987.987 0 0 1-.406.656Z"/></svg>
